packages/kaspersky-hexa-ui-icons/src/iconsSVGs/24/WriteSolid.svg

<svg width="24" height="24" viewBox="0 0 24 24" fill="none" xmlns="http://www.w3.org/2000/svg">
<path d="M16.7274 1.85851C17.4303 1.15556 18.57 1.15556 19.2729 1.85851L22.1416 4.72714C22.8445 5.43008 22.8445 6.56978 22.1416 7.27272L20.4144 8.99993L15.0001 3.58572L16.7274 1.85851Z" fill="black"/>
<path d="M13.5859 4.99993L19.0001 10.4141L8.92136 20.493C8.64216 20.7722 8.28656 20.9625 7.89938 21.0399L3.49045 21.9217C2.65079 22.0896 1.91048 21.3493 2.07841 20.5097L2.9602 16.1007C3.03764 15.7135 3.22795 15.3579 3.50715 15.0787L13.5859 4.99993Z" fill="black"/>
<path d="M13 19.9999C12.4477 19.9999 12 20.4477 12 20.9999C12 21.5522 12.4477 21.9999 13 21.9999H20C20.5523 21.9999 21 21.5522 21 20.9999C21 20.4477 20.5523 19.9999 20 19.9999H13Z" fill="black"/>
</svg>

<svg xmlns="http://www.w3.org/2000/svg" width="24" height="24" fill="none" viewBox="0 0 24 24"><path fill="#000" fill-rule="evenodd" d="M16.7273 1.8585c.703-.703 1.8427-.703 2.5456 0l2.8687 2.8686c.7029.703.7029 1.8427 0 2.5456L20.4144 9l-5.4143-5.4142zm2.2728 8.5556-5.4142-5.4142L3.5071 15.0787a2 2 0 0 0-.5469 1.022l-.8818 4.409c-.168.8396.5724 1.5799 1.412 1.412l4.409-.8818a2 2 0 0 0 1.022-.5469zM13 19.9999c-.5523 0-1 .4478-1 1s.4477 1 1 1h7c.5523 0 1-.4477 1-1s-.4477-1-1-1z"/></svg>
